X:643
T:Polska # 643
S:efter Anders Gustaf Andersson
B:Sörmlands musikarkiv - Anders Gustaf Andersson, Nora (pdf), nr 643
O:Mörkö, Södermanland
R:Slängpolska
M:3/4
L:1/16
K:F
Q:120
F3A c2e2 (fefg | a2)a2 (gage) f4 | c3e e2g2 g2b2 | b2g2 (ag)eg f4 |
F3A c2e2 (fefg | a2)a2 (ga)ge f2f2 | d2Bd c2Ac B2B2 | (cB)AB G4F4 :|
F3A A2c2 c2c2 | (dc)BA B2G2 (G4 | G3)A B2B2 B2B2 | (cB)AB A2F2 (F4 |
F3)A A2c2 c2c2 | (dc)BA B2G2 (G4 | G3)A B2B2 B2B2 | (cB)AB A2F2 F4 |
F3A c2e2 (fefg | a2)a2 (ga)ge f2f2 | d2Bd c2Ac B2(B2{cB}) | (cB)AB G4F4 :|

